X:189
T:Tommy's Chance. JJo8.189
%%VWML:JohnsonVol8-2184-p95-0
F:http://www.vwml.org/record/JohnsonVol8/2184/p95
Z:Transcribed by Simon Furey and Lewis Jones
Z:vmp.Simon Wilson 2013 www.village-music-project.org.uk
Z:Dance added by John Chambers 2017
M:6/8
L:1/8
%Q:3/8=120
K:G
|:\
gdB G3 | gdB G3 | gfe  dcB | cBA G3 |\
DFA d3 | DFA d3 | d^cB AGF | GFE D3 :|
|:\
dfa afd | afd TB3 | agf edc | Tc3 B3 |\
dBG ecA | fdf Tg3 | ege faf | Tg3 G3 :|
W: The 1st Man whole figure on his own side .|
W:then the 1st Wo. do the same on her side ..|
W:foot it four times and cross over .| then foot
W:it four times and cross up again ..| lead down
W:two Cu. and cast up one .| Lead thro' the Top
W:and cast off one Cu. ..| hands four at Bottom
W:.| and right and left at Top ..|
W:
T:King's Arms Assembly. JJo8190, The
B:J.Johnson Choice Collection Vol 8 1758
Z:vmp.Simon Wilson 2013 www.village-music-project.org.uk
Z:Dance added by John Chambers 2017
M:2/4
L:1/8
%Q:1/2=80
K:D
|:\
af Tfe//f// | af Tfe//f// | gfed | cdeA |\
af Tfe/f/ | af Tfe/f/ | gfed | Ac!fermata!d2 :|
|:\
fda2 | eca2 | d/e/f/^g//a// bd | cBA2 |\
fd^ge | b^ged | caB^g | a4 :|
W: The 1st Cu. right hands and cast off one
W:Cu. .| Left hands the Man cast off and the
W:Wo. cast up ..| fall in Top and Bottom and
W:foot it all six .| then fall in sides and foot
W:it all Six and turn ..| turn contrary Corners
W:and turn Partners .| the other Corners the
W:same ..| and lead thro' Top & Bottom ..|
W:
